X:1
T:I'll Lay Ye Doon, Love
M:9/8
L:1/8
K:D
 z A,B,| D2 D D3- DD E| F2 EF A2- AF A| B2 BA F2- FE-D|F-E D B,6-|\
 A,6 z A,B,| D2 D D3- DD E| F2 EF A2- AF-A| B2 B A- F2D-E F| E2 D D3|\
